color-reference/BINKS LOOK.cube
LUT_3D_SIZE 16
0.000000 0.000000 0.000000
0.000020 -0.000000 -0.000000
0.054537 0.000789 0.000808
0.158206 0.001046 0.003393
0.323222 0.003893 0.015427
0.525368 0.007512 0.027500
0.718409 0.010819 0.039857
0.866756 0.014984 0.059106
0.952446 0.029039 0.094468
0.979101 0.059305 0.157236
0.991053 0.100380 0.246884
0.996136 0.163075 0.360225
0.998611 0.264474 0.495135
0.999352 0.412389 0.623739
1.000021 0.565285 0.726050
1.000002 0.682659 0.803289
0.000000 0.000000 0.000000
0.000000 0.000000 0.000000
0.053068 0.000832 0.000846
0.158812 0.001172 0.002962
0.324701 0.004195 0.014916
0.526512 0.007769 0.027118
0.719193 0.011039 0.039482
0.867128 0.015173 0.058988
0.952515 0.029582 0.094441
0.979045 0.060027 0.157181
0.990871 0.101372 0.246964
0.996138 0.164172 0.360320
0.998614 0.265661 0.495360
0.999607 0.413368 0.623915
1.000021 0.565780 0.726070
1.000002 0.682951 0.803304
0.000482 0.038160 0.000482
0.000530 0.037690 0.000489
0.032430 0.031808 0.000631
0.156087 0.015361 0.001444
0.336707 0.007469 0.009567
0.535529 0.010205 0.022931
0.726798 0.013009 0.036832
0.875030 0.017464 0.056046
0.952625 0.034393 0.093620
0.978968 0.065443 0.156722
0.990949 0.107893 0.247038
0.996158 0.171638 0.361125
0.998639 0.273170 0.496356
0.999499 0.419346 0.624288
1.000018 0.568852 0.726497
1.000002 0.684339 0.803406
0.000489 0.130739 0.000707
0.000489 0.130654 0.000707
0.003608 0.129849 0.000520
0.120973 0.121039 0.000683
0.302587 0.090833 0.003876
0.520268 0.062100 0.011077
0.740121 0.041931 0.020631
0.899341 0.034071 0.040007
0.953145 0.054904 0.088908
0.979181 0.085862 0.154737
0.990988 0.128273 0.247184
0.996133 0.193904 0.362350
0.998698 0.296634 0.497679
0.999469 0.435055 0.625624
1.000018 0.575860 0.727038
1.000002 0.687761 0.803668
0.000489 0.260743 0.002155
0.000489 0.260743 0.002155
0.000494 0.260589 0.002100
0.042022 0.257095 0.000705
0.251648 0.244130 0.001218
0.460456 0.219083 0.005174
0.678516 0.186271 0.013060
0.856039 0.152249 0.025850
0.950168 0.137334 0.070330
0.978572 0.148922 0.146601
0.990791 0.184294 0.244128
0.996104 0.245985 0.363571
0.998692 0.339642 0.500390
0.999491 0.467029 0.627501
1.000028 0.592134 0.728067
1.000002 0.694189 0.803856
0.000526 0.418582 0.009414
0.000527 0.418417 0.009437
0.000537 0.418246 0.009420
0.000883 0.416522 0.006710
0.136497 0.407808 0.001944
0.397874 0.390167 0.003238
0.621115 0.358186 0.008788
0.797471 0.324008 0.020233
0.939838 0.289126 0.041365
0.975596 0.281347 0.130991
0.989868 0.294800 0.240214
0.995883 0.336878 0.365294
0.998733 0.409461 0.503315
0.999495 0.512393 0.630027
1.000023 0.617849 0.729009
1.000002 0.708731 0.804151
0.000586 0.576177 0.031310
0.000587 0.576171 0.031400
0.000595 0.575701 0.031787
0.000719 0.574140 0.031506
0.026293 0.577464 0.005627
0.283919 0.562550 0.007111
0.553712 0.541585 0.010432
0.739848 0.504461 0.017753
0.884709 0.467843 0.039345
0.967506 0.439179 0.110353
0.987329 0.433824 0.230961
0.995008 0.453597 0.364507
0.998180 0.502737 0.506360
0.999479 0.571294 0.632383
1.000028 0.649308 0.730448
1.000002 0.725105 0.804285
0.000645 0.691413 0.067671
0.000646 0.691363 0.067718
0.000661 0.691314 0.068183
0.000761 0.690298 0.068846
0.002469 0.691229 0.059684
0.136621 0.698228 0.015798
0.430692 0.682929 0.020766
0.675585 0.663643 0.028108
0.833548 0.623406 0.041622
0.951452 0.589538 0.080086
0.982660 0.573261 0.222300
0.993762 0.573345 0.359735
0.997728 0.593589 0.507186
0.999423 0.636555 0.634351
1.000069 0.688740 0.731350
1.000002 0.747150 0.804536
0.000725 0.778208 0.144079
0.000728 0.778048 0.144081
0.000756 0.778048 0.143763
0.000891 0.777420 0.142642
0.001981 0.778677 0.134521
0.016615 0.793947 0.085148
0.260981 0.794557 0.044550
0.553527 0.778014 0.054837
0.770441 0.758266 0.071100
0.902285 0.718311 0.092076
0.972844 0.691065 0.198977
0.990516 0.683404 0.361177
0.996965 0.685240 0.506088
0.999022 0.703296 0.634401
0.999782 0.737414 0.730464
1.000002 0.774492 0.804426
0.000895 0.844251 0.251640
0.000904 0.844296 0.251565
0.000969 0.844344 0.251136
0.001182 0.844224 0.249963
0.002170 0.845754 0.244367
0.008165 0.853509 0.221306
0.077646 0.884385 0.115813
0.374997 0.870719 0.105899
0.651363 0.851575 0.121841
0.838393 0.832476 0.148316
0.948828 0.794489 0.183776
0.984497 0.772487 0.350575
0.995118 0.768549 0.512455
0.998566 0.772590 0.635807
0.999582 0.786989 0.731564
1.000081 0.810327 0.803698
0.001419 0.893239 0.374142
0.001436 0.893416 0.374079
0.001558 0.893473 0.373483
0.001928 0.893893 0.371702
0.003074 0.895460 0.366962
0.007557 0.901115 0.352286
0.035853 0.919925 0.301930
0.188780 0.940497 0.215257
0.498585 0.922157 0.212411
0.735361 0.902266 0.238123
0.888874 0.884274 0.279323
0.967268 0.852264 0.364284
0.990981 0.836209 0.514396
0.997516 0.834623 0.641813
0.999477 0.838945 0.734747
1.000030 0.848536 0.805131
0.002768 0.930258 0.510442
0.002793 0.930252 0.510363
0.002979 0.930530 0.509816
0.003561 0.931063 0.508129
0.004946 0.933160 0.504633
0.009459 0.937807 0.495075
0.028136 0.949821 0.472890
0.125483 0.967719 0.420719
0.378429 0.960978 0.396231
0.626953 0.949651 0.387731
0.806663 0.934956 0.406776
0.923399 0.919373 0.452708
0.978830 0.895946 0.535204
0.994744 0.885270 0.649230
0.998927 0.884319 0.740639
0.999884 0.886602 0.808090
0.006120 0.958955 0.634209
0.006161 0.959159 0.634168
0.006424 0.959162 0.633760
0.007317 0.960059 0.632337
0.009561 0.962113 0.629520
0.014846 0.966298 0.624065
0.032562 0.976273 0.609850
0.123818 0.982422 0.592005
0.319428 0.980050 0.569379
0.554683 0.973686 0.561776
0.735152 0.965954 0.557450
0.863232 0.955037 0.571316
0.946515 0.943834 0.606312
0.986242 0.928073 0.668297
0.996977 0.920793 0.749406
0.999576 0.919447 0.815798
0.015260 0.983536 0.732383
0.015343 0.983475 0.732389
0.015878 0.983924 0.732196
0.017383 0.984916 0.731563
0.021667 0.987449 0.729265
0.037418 0.991242 0.725128
0.085145 0.990999 0.719653
0.178728 0.990318 0.711019
0.329966 0.989290 0.700650
0.516277 0.987077 0.692161
0.687408 0.982911 0.689957
0.813576 0.976940 0.687407
0.903720 0.969947 0.697233
0.962528 0.961906 0.721213
0.990615 0.951244 0.765870
0.998725 0.946052 0.825239
0.092519 0.994967 0.808846
0.092873 0.994966 0.808875
0.095222 0.994928 0.808672
0.103948 0.995182 0.808106
0.124369 0.995060 0.806649
0.160767 0.994944 0.804251
0.214885 0.994801 0.801463
0.289855 0.994656 0.798181
0.400336 0.994135 0.794373
0.539397 0.993147 0.790490
0.672506 0.991497 0.786392
0.785421 0.988843 0.785104
0.871550 0.984788 0.781859
0.933822 0.979535 0.787947
0.974343 0.973934 0.805391
0.994181 0.966769 0.838925
0.294337 0.996977 0.861250
0.294870 0.996973 0.861221
0.298153 0.997096 0.861122
0.306904 0.997108 0.860834
0.322994 0.997131 0.860431
0.352452 0.997065 0.859684
0.395785 0.997015 0.858849
0.450688 0.996967 0.857960
0.514868 0.996538 0.856836
0.602508 0.996295 0.855785
0.691364 0.995615 0.853752
0.778702 0.994586 0.851478
0.855171 0.992523 0.850335
0.912620 0.990289 0.848666
0.955127 0.986961 0.853188
0.982502 0.982345 0.866241
0.000000 0.000000 0.000000
0.000017 -0.000000 -0.000000
0.054606 0.000808 0.000856
0.158360 0.001051 0.004348
0.323362 0.003885 0.016976
0.525401 0.007506 0.028684
0.718285 0.010802 0.040910
0.866546 0.014950 0.060524
0.952473 0.028979 0.096222
0.979108 0.059244 0.158958
0.991048 0.100347 0.248611
0.996113 0.163060 0.361546
0.998574 0.264430 0.496150
0.999603 0.412396 0.624078
1.000018 0.565199 0.726608
1.000002 0.682633 0.803295
0.000000 0.000000 0.000000
0.000000 0.000000 0.000000
0.053170 0.000853 0.000921
0.159033 0.001181 0.003966
0.324844 0.004197 0.016469
0.526505 0.007766 0.028279
0.719166 0.011031 0.040714
0.867211 0.015144 0.060438
0.952611 0.029528 0.096219
0.979172 0.059956 0.158949
0.990832 0.101356 0.248627
0.996127 0.164172 0.361701
0.998607 0.265566 0.496217
0.999574 0.413275 0.624257
1.000018 0.565693 0.726549
1.000002 0.682893 0.803317
0.000505 0.038606 0.000841
0.000530 0.038200 0.000813
0.031991 0.032133 0.000725
0.158478 0.014531 0.001863
0.336983 0.007510 0.010981
0.535541 0.010221 0.024155
0.726606 0.012975 0.038566
0.875069 0.017456 0.057758
0.952794 0.034371 0.095514
0.979082 0.065425 0.158547
0.990942 0.107829 0.248902
0.996115 0.171569 0.362314
0.998608 0.273035 0.497081
0.999456 0.419205 0.624671
1.000018 0.568752 0.726948
1.000002 0.684140 0.803389
0.000489 0.131157 0.000806
0.000489 0.131105 0.000805
0.003506 0.130410 0.000536
0.121039 0.121649 0.000762
0.303613 0.091096 0.004205
0.521984 0.062010 0.011658
0.742199 0.041443 0.021406
0.899320 0.034017 0.042099
0.953110 0.054807 0.091311
0.979146 0.085745 0.157355
0.991058 0.128283 0.248869
0.996108 0.193908 0.363526
0.998676 0.296543 0.498561
0.999457 0.435065 0.626000
1.000018 0.575795 0.727107
1.000002 0.687603 0.803706
0.000489 0.261050 0.002396
0.000489 0.261058 0.002399
0.000494 0.260890 0.002352
0.041671 0.257539 0.000762
0.251894 0.244657 0.001383
0.461158 0.219125 0.005590
0.680117 0.185793 0.013740
0.857884 0.151601 0.026826
0.950136 0.137182 0.072224
0.978620 0.148887 0.148740
0.990687 0.184212 0.246114
0.996155 0.245980 0.364791
0.998674 0.339641 0.501130
0.999454 0.466994 0.627920
1.000028 0.592208 0.727980
1.000002 0.694133 0.803935
0.000526 0.418538 0.010254
0.000527 0.418561 0.010286
0.000537 0.418230 0.010280
0.000881 0.416527 0.007785
0.135622 0.408306 0.002137
0.397979 0.390457 0.003485
0.622077 0.357977 0.009373
0.798603 0.323601 0.021199
0.939943 0.288885 0.043481
0.975420 0.281263 0.133301
0.989747 0.294798 0.242179
0.995796 0.336738 0.366678
0.998474 0.409475 0.503962
0.999479 0.512412 0.630374
1.000023 0.617835 0.729249
1.000002 0.708847 0.804147
0.000586 0.576081 0.033723
0.000587 0.576036 0.033814
0.000595 0.575520 0.034138
0.000719 0.574029 0.033738
0.024369 0.578070 0.006017
0.283135 0.562995 0.007549
0.553930 0.541921 0.010979
0.740648 0.504269 0.018695
0.885700 0.467333 0.040794
0.967514 0.439071 0.112611
0.987247 0.433844 0.232798
0.995069 0.453587 0.365960
0.998086 0.502661 0.507286
0.999442 0.571266 0.632864
1.000028 0.649319 0.730439
1.000002 0.725176 0.804206
0.000645 0.691422 0.070816
0.000645 0.691347 0.070953
0.000661 0.691077 0.071374
0.000760 0.690138 0.071951
0.002466 0.691204 0.062679
0.134585 0.698761 0.016622
0.429906 0.683269 0.021697
0.675761 0.663616 0.029157
0.834023 0.623278 0.042892
0.951996 0.589369 0.081784
0.982459 0.573252 0.224194
0.993885 0.573379 0.361190
0.997682 0.593601 0.508057
0.999583 0.636546 0.634893
1.000069 0.688759 0.731578
1.000002 0.747017 0.804264
0.000725 0.778027 0.146220
0.000728 0.777988 0.146224
0.000756 0.777896 0.145923
0.000891 0.777424 0.144772
0.001981 0.778630 0.137084
0.016603 0.793644 0.088136
0.259629 0.794932 0.045744
0.553049 0.778286 0.056123
0.770430 0.758304 0.072434
0.902495 0.718283 0.093380
0.972873 0.691042 0.200871
0.990497 0.683424 0.362383
0.997020 0.685176 0.507010
0.998966 0.703405 0.634806
0.999779 0.737315 0.731041
1.000002 0.774464 0.804676
0.000895 0.844238 0.253456
0.000904 0.844234 0.253372
0.000969 0.844257 0.252958
0.001183 0.844193 0.251788
0.002171 0.845760 0.246213
0.008158 0.853474 0.223046
0.077647 0.884390 0.118162
0.374436 0.870749 0.107180
0.651230 0.851509 0.123172
0.838258 0.832498 0.149651
0.948785 0.794401 0.185070
0.984539 0.772451 0.352281
0.995061 0.768575 0.513347
0.998631 0.772560 0.636236
0.999571 0.787040 0.731887
1.000081 0.810316 0.803690
0.001419 0.893257 0.375350
0.001436 0.893392 0.375252
0.001558 0.893428 0.374607
0.001928 0.893990 0.372943
0.003075 0.895477 0.368171
0.007559 0.901154 0.353534
0.035868 0.919922 0.303192
0.188667 0.940386 0.216940
0.498334 0.922157 0.213614
0.735322 0.902316 0.239592
0.888702 0.884193 0.280493
0.967204 0.852192 0.365482
0.990849 0.836230 0.515093
0.997493 0.834610 0.642106
0.999467 0.838944 0.734890
1.000030 0.848509 0.805246
0.002768 0.930164 0.511281
0.002794 0.930182 0.511224
0.002980 0.930521 0.510695
0.003561 0.931141 0.508928
0.004948 0.933012 0.505441
0.009460 0.938041 0.495928
0.028080 0.949765 0.473596
0.125269 0.967729 0.421444
0.378357 0.960917 0.397183
0.626909 0.949431 0.388685
0.806547 0.935027 0.407757
0.923788 0.919173 0.453512
0.978768 0.895854 0.536007
0.994586 0.885259 0.649450
0.998930 0.884364 0.740772
0.999884 0.886610 0.808123
0.006122 0.959052 0.634639
0.006161 0.958970 0.634571
0.006424 0.959190 0.634200
0.007317 0.960006 0.632844
0.009563 0.962085 0.630012
0.014847 0.966486 0.624497
0.032563 0.976232 0.610378
0.123630 0.982311 0.592417
0.319450 0.980020 0.569854
0.554668 0.973726 0.562162
0.735093 0.965852 0.557884
0.863304 0.955148 0.571834
0.946331 0.943924 0.606420
0.986073 0.928153 0.668634
0.996949 0.920800 0.749753
0.999576 0.919435 0.815896
0.015265 0.983533 0.732621
0.015347 0.983564 0.732588
0.015879 0.983995 0.732402
0.017392 0.984878 0.731630
0.021671 0.987428 0.729467
0.037416 0.991224 0.725221
0.085176 0.991006 0.720095
0.178746 0.990302 0.711413
0.329850 0.989273 0.701042
0.516275 0.987072 0.692333
0.687395 0.982821 0.690464
0.813589 0.976930 0.687223
0.903737 0.969897 0.697227
0.962453 0.962063 0.721632
0.990678 0.951191 0.766194
0.998569 0.946054 0.825424
0.092531 0.994967 0.809088
0.092924 0.994965 0.809010
0.095246 0.995202 0.808868
0.103944 0.995181 0.808050
0.124175 0.995178 0.806629
0.160831 0.994921 0.804303
0.214894 0.994788 0.801477
0.289888 0.994653 0.798285
0.400339 0.994135 0.794348
0.539349 0.993029 0.790546
0.672538 0.991377 0.786222
0.785421 0.988848 0.785149
0.871532 0.984886 0.782165
0.933724 0.979695 0.788087
0.974461 0.973951 0.805670
0.994101 0.966848 0.838696
0.294433 0.996975 0.861360
0.294922 0.996972 0.861253
0.298131 0.997092 0.861128
0.306886 0.997104 0.860846
0.323036 0.997131 0.860415
0.352379 0.997065 0.859827
0.395767 0.996963 0.858858
0.450728 0.996967 0.858009
0.514828 0.996523 0.856893
0.602548 0.996297 0.855573
0.691188 0.995618 0.853914
0.778733 0.994583 0.851608
0.855167 0.992516 0.850634
0.912612 0.990279 0.848798
0.955119 0.986952 0.853380
0.982913 0.982295 0.866275
0.001321 0.001321 0.038532
0.001518 0.001343 0.038663
0.053299 0.000853 0.032563
0.158971 0.001022 0.024135
0.324300 0.003853 0.029539
0.525754 0.007405 0.038964
0.717520 0.010552 0.053585
0.864764 0.014578 0.074662
0.952692 0.028273 0.111708
0.979185 0.058777 0.173453
0.990996 0.100103 0.260249
0.996046 0.162734 0.370237
0.998706 0.263676 0.501617
0.999431 0.411884 0.626911
1.000018 0.564676 0.727603
1.000002 0.682201 0.804204
0.001358 0.001790 0.039218
0.001559 0.001752 0.039702
0.051611 0.000976 0.032869
0.159751 0.001163 0.023821
0.325820 0.004179 0.029296
0.526842 0.007644 0.038728
0.718364 0.010773 0.053494
0.865645 0.014811 0.074582
0.952546 0.028822 0.112000
0.979172 0.059532 0.173716
0.990990 0.101084 0.260243
0.996093 0.163821 0.370283
0.998708 0.264773 0.501719
0.999430 0.412833 0.626911
1.000018 0.565223 0.727718
1.000002 0.682520 0.804184
0.000672 0.035438 0.029241
0.000725 0.034704 0.029128
0.027261 0.026399 0.026284
0.178745 0.008681 0.020098
0.338746 0.007815 0.026119
0.535875 0.010121 0.036442
0.726399 0.012843 0.051792
0.874255 0.017296 0.072225
0.952808 0.033895 0.111841
0.979059 0.064861 0.174691
0.990937 0.107474 0.260534
0.996081 0.171283 0.370820
0.998713 0.272400 0.502559
0.999439 0.418375 0.627469
1.000018 0.568328 0.728007
1.000002 0.684063 0.804255
0.000488 0.133394 0.012771
0.000488 0.133334 0.012855
0.000966 0.133991 0.011467
0.123156 0.128101 0.004713
0.316729 0.090936 0.009997
0.539517 0.058021 0.018685
0.761792 0.035033 0.029599
0.899438 0.033809 0.057834
0.953138 0.054901 0.106449
0.979084 0.085222 0.173772
0.990997 0.128092 0.260384
0.996124 0.193501 0.371692
0.998668 0.296135 0.503740
0.999431 0.434507 0.628520
1.000016 0.575184 0.728609
1.000002 0.687210 0.804528
0.000489 0.262284 0.009705
0.000489 0.262262 0.009807
0.000494 0.262033 0.010437
0.034485 0.262543 0.002227
0.254412 0.248707 0.004167
0.469131 0.218624 0.009834
0.692382 0.182431 0.019716
0.873673 0.145986 0.035367
0.950393 0.135620 0.088583
0.978707 0.149049 0.163369
0.990764 0.183626 0.258805
0.996002 0.245695 0.372863
0.998532 0.339116 0.506100
0.999392 0.466537 0.630489
1.000027 0.591804 0.729371
1.000002 0.693894 0.804706
0.000527 0.418718 0.019699
0.000527 0.418707 0.019768
0.000538 0.418222 0.019954
0.000872 0.416823 0.018097
0.127761 0.412518 0.004223
0.400171 0.393182 0.006629
0.628897 0.356452 0.014626
0.808163 0.320549 0.028311
0.939902 0.287861 0.058710
0.975391 0.280604 0.149814
0.989882 0.294687 0.254695
0.995739 0.336174 0.375471
0.998734 0.409198 0.508789
0.999458 0.511895 0.632863
1.000023 0.617527 0.730522
1.000002 0.708613 0.804797
0.000587 0.575270 0.049048
0.000587 0.575219 0.049109
0.000595 0.574732 0.049074
0.000720 0.573260 0.047970
0.011941 0.582034 0.008860
0.276972 0.565921 0.010915
0.555258 0.543640 0.015359
0.746269 0.502771 0.026044
0.892770 0.465261 0.050721
0.967293 0.438675 0.128246
0.987280 0.433662 0.245359
0.995097 0.453898 0.374737
0.998125 0.501965 0.513028
0.999438 0.570979 0.635226
1.000028 0.648956 0.731576
1.000002 0.725035 0.804807
0.000644 0.690602 0.091447
0.000646 0.690584 0.091554
0.000661 0.690462 0.091808
0.000759 0.689464 0.091969
0.002466 0.690492 0.082100
0.121097 0.702878 0.022498
0.424838 0.685768 0.028270
0.677267 0.664728 0.037647
0.837168 0.622367 0.051974
0.951567 0.588783 0.099189
0.982481 0.573210 0.236309
0.993672 0.573456 0.369940
0.997714 0.593681 0.513754
0.999597 0.636442 0.637813
1.000065 0.688426 0.732624
1.000002 0.747031 0.804825
0.000726 0.777581 0.162670
0.000728 0.777422 0.162703
0.000756 0.777359 0.162603
0.000892 0.776975 0.162100
0.001982 0.777989 0.155357
0.016589 0.793033 0.107314
0.250575 0.797506 0.053997
0.549921 0.779311 0.064714
0.771034 0.758817 0.081422
0.903828 0.717472 0.102185
0.972636 0.690994 0.213249
0.990549 0.683607 0.372077
0.997048 0.685062 0.512356
0.999176 0.703454 0.637690
0.999750 0.737390 0.732422
1.000002 0.774389 0.805308
0.000896 0.844243 0.265317
0.000907 0.844218 0.265226
0.000971 0.844261 0.264849
0.001186 0.844224 0.263670
0.002175 0.845719 0.258275
0.008132 0.853058 0.234920
0.077569 0.883832 0.133439
0.369929 0.871595 0.115826
0.649667 0.852085 0.131869
0.838229 0.832476 0.158651
0.948384 0.794358 0.195575
0.984494 0.772443 0.361139
0.995114 0.768720 0.518699
0.998635 0.772440 0.638809
0.999497 0.787097 0.733250
1.000081 0.810206 0.804189
0.001419 0.893059 0.383584
0.001436 0.893118 0.383548
0.001559 0.893402 0.382811
0.001929 0.893674 0.381174
0.003082 0.895480 0.376463
0.007579 0.900912 0.362047
0.035915 0.919482 0.312516
0.188273 0.940163 0.227838
0.496598 0.922291 0.222156
0.734663 0.902104 0.248057
0.888605 0.883799 0.288855
0.967111 0.852144 0.372884
0.990550 0.836452 0.519916
0.997468 0.834898 0.645194
0.999492 0.838904 0.736007
1.000024 0.848360 0.805602
0.002771 0.930140 0.516512
0.002796 0.930303 0.516442
0.002983 0.930530 0.515886
0.003564 0.931132 0.514105
0.004952 0.933011 0.510632
0.009485 0.937578 0.501282
0.027721 0.949783 0.478962
0.123493 0.967870 0.426713
0.378153 0.960936 0.403514
0.626920 0.949260 0.395192
0.806520 0.934434 0.414196
0.923229 0.918939 0.458832
0.978677 0.895645 0.539636
0.994580 0.885187 0.651694
0.998914 0.884272 0.742619
0.999883 0.886607 0.808761
0.006127 0.959037 0.637229
0.006168 0.959075 0.637175
0.006431 0.959022 0.636859
0.007327 0.960027 0.635609
0.009580 0.962056 0.632838
0.014875 0.966217 0.627429
0.032642 0.976184 0.613335
0.122724 0.982423 0.594821
0.319333 0.979920 0.573080
0.554692 0.973968 0.565548
0.734911 0.965763 0.561229
0.863298 0.955042 0.574709
0.946207 0.943869 0.609379
0.985991 0.928063 0.670284
0.997050 0.920799 0.751059
0.999603 0.919369 0.816394
0.015291 0.983336 0.734433
0.015371 0.983287 0.734479
0.015898 0.983964 0.733857
0.017417 0.984809 0.733331
0.021714 0.987685 0.731084
0.037389 0.991163 0.726972
0.085086 0.991025 0.721645
0.179187 0.990518 0.712731
0.330302 0.989258 0.702513
0.516256 0.986944 0.694251
0.687209 0.982750 0.691989
0.813561 0.977038 0.688711
0.903446 0.969846 0.698686
0.962376 0.961882 0.722612
0.990782 0.951269 0.767098
0.998633 0.946006 0.825841
0.092591 0.994936 0.809622
0.092841 0.995143 0.809591
0.095182 0.995082 0.809615
0.104049 0.995138 0.809127
0.124279 0.995097 0.807616
0.160908 0.995075 0.805179
0.215052 0.994892 0.802295
0.289869 0.994643 0.798828
0.400379 0.994280 0.795284
0.539438 0.993035 0.791199
0.672383 0.991439 0.786935
0.785380 0.988697 0.785746
0.871477 0.984815 0.782759
0.933639 0.979550 0.788815
0.974496 0.973692 0.806075
0.994017 0.966802 0.838931
0.294436 0.996974 0.861564
0.295003 0.997153 0.861535
0.298157 0.997037 0.861264
0.306966 0.997059 0.861032
0.323618 0.997096 0.860444
0.352542 0.997046 0.859891
0.395843 0.996962 0.859203
0.450693 0.996850 0.858407
0.514824 0.996729 0.857458
0.602544 0.996293 0.855926
0.691362 0.995576 0.853979
0.778676 0.994485 0.852180
0.855222 0.992804 0.850645
0.912683 0.990131 0.849167
0.955132 0.986950 0.853159
0.982915 0.982291 0.866246
0.001508 0.001260 0.137253
0.002045 0.001254 0.137208
0.036195 0.000922 0.129563
0.158071 0.000823 0.120733
0.321110 0.002929 0.111947
0.521221 0.006203 0.107725
0.712534 0.009361 0.112886
0.860833 0.013641 0.128498
0.952518 0.026260 0.160521
0.979106 0.057218 0.216573
0.990978 0.099195 0.292034
0.996083 0.161584 0.392381
0.998765 0.262132 0.515420
0.999369 0.410429 0.634000
1.000018 0.563681 0.731490
1.000002 0.681530 0.806050
0.001320 0.001418 0.138548
0.001804 0.001351 0.138942
0.034563 0.000982 0.131049
0.158328 0.000894 0.121961
0.322273 0.003142 0.112916
0.522192 0.006410 0.108444
0.713488 0.009590 0.113142
0.861798 0.013948 0.128580
0.952510 0.026932 0.160528
0.979105 0.057945 0.216802
0.990854 0.100097 0.292154
0.996100 0.162665 0.392590
0.998768 0.263237 0.515523
0.999431 0.411245 0.634109
1.000018 0.564160 0.731479
1.000002 0.681806 0.806124
0.000712 0.024109 0.127786
0.000757 0.023850 0.128369
0.015061 0.014567 0.163152
0.171992 0.005908 0.138157
0.334411 0.006310 0.118410
0.531223 0.008825 0.111219
0.722990 0.012088 0.112753
0.870404 0.016461 0.128294
0.953089 0.032465 0.160594
0.979096 0.064142 0.216670
0.990946 0.106592 0.292462
0.996021 0.170292 0.392592
0.998743 0.271441 0.515996
0.999389 0.416990 0.634615
1.000018 0.566983 0.731533
1.000002 0.683091 0.806005
0.000486 0.134096 0.121221
0.000487 0.134000 0.121399
0.000663 0.133728 0.123175
0.104975 0.129256 0.125191
0.354367 0.078308 0.103441
0.576997 0.043458 0.092589
0.764782 0.031836 0.099027
0.899171 0.032279 0.118801
0.952678 0.054260 0.157339
0.979174 0.084470 0.214615
0.991002 0.127475 0.292570
0.996070 0.192396 0.393856
0.998639 0.295202 0.516895
0.999514 0.433371 0.635539
1.000015 0.573811 0.731919
1.000002 0.686569 0.806078
0.000492 0.263521 0.093141
0.000492 0.263462 0.093384
0.000494 0.263185 0.094880
0.009200 0.273150 0.079593
0.260474 0.260486 0.047283
0.507413 0.209836 0.056883
0.743266 0.165559 0.061270
0.889736 0.137519 0.088313
0.950269 0.132114 0.140249
0.978610 0.147982 0.206598
0.990604 0.182890 0.290382
0.995994 0.245099 0.395462
0.998533 0.338249 0.518962
0.999466 0.465151 0.637073
1.000027 0.590906 0.732914
1.000002 0.693605 0.806180
0.000529 0.417749 0.086184
0.000530 0.417717 0.086386
0.000535 0.417375 0.087303
0.000833 0.415766 0.086547
0.080512 0.431627 0.028594
0.407469 0.401811 0.035301
0.654462 0.350606 0.048863
0.837873 0.310551 0.060833
0.939572 0.284858 0.112873
0.974932 0.279733 0.192997
0.989757 0.294798 0.287139
0.995691 0.334745 0.398718
0.998634 0.407729 0.522405
0.999565 0.511098 0.638800
1.000023 0.616687 0.733903
1.000002 0.708246 0.806365
0.000588 0.573606 0.098615
0.000589 0.573544 0.098693
0.000596 0.573017 0.098828
0.000723 0.571489 0.098410
0.009072 0.581214 0.065462
0.250872 0.576803 0.031791
0.559989 0.548211 0.041083
0.760522 0.498189 0.055506
0.909084 0.459974 0.082289
0.966627 0.437363 0.173456
0.987302 0.433578 0.278481
0.995128 0.454333 0.397698
0.998118 0.500259 0.527940
0.999622 0.570062 0.641836
1.000026 0.648615 0.734801
1.000002 0.724492 0.806459
0.000644 0.688894 0.144482
0.000646 0.688956 0.144529
0.000661 0.688639 0.144660
0.000760 0.687716 0.144162
0.002498 0.689477 0.133763
0.083212 0.713907 0.044025
0.408699 0.692369 0.053019
0.679507 0.667421 0.064905
