color-reference/BINKS LOOK.cube
LUT_3D_SIZE 6
0.000000 0.000000 0.000000
0.158206 0.001046 0.003393
0.718409 0.010819 0.039857
0.979101 0.059305 0.157236
0.998611 0.264474 0.495135
1.000002 0.682659 0.803289
0.000489 0.130739 0.000707
0.120973 0.121039 0.000683
0.740121 0.041931 0.020631
0.979181 0.085862 0.154737
0.998698 0.296634 0.497679
1.000002 0.687761 0.803668
0.000586 0.576177 0.031310
0.000719 0.574140 0.031506
0.553712 0.541585 0.010432
0.967506 0.439179 0.110353
0.998180 0.502737 0.506360
1.000002 0.725105 0.804285
0.000895 0.844251 0.251640
0.001182 0.844224 0.249963
0.077646 0.884385 0.115813
0.838393 0.832476 0.148316
0.995118 0.768549 0.512455
1.000081 0.810327 0.803698
0.006120 0.958955 0.634209
0.007317 0.960059 0.632337
0.032562 0.976273 0.609850
0.554683 0.973686 0.561776
0.946515 0.943834 0.606312
0.999576 0.919447 0.815798
0.294337 0.996977 0.861250
0.306904 0.997108 0.860834
0.395785 0.997015 0.858849
0.602508 0.996295 0.855785
0.855171 0.992523 0.850335
0.982502 0.982345 0.866241
0.001508 0.001260 0.137253
0.158071 0.000823 0.120733
0.712534 0.009361 0.112886
0.979106 0.057218 0.216573
0.998765 0.262132 0.515420
1.000002 0.681530 0.806050
0.000486 0.134096 0.121221
0.104975 0.129256 0.125191
0.764782 0.031836 0.099027
0.979174 0.084470 0.214615
0.998639 0.295202 0.516895
1.000002 0.686569 0.806078
0.000588 0.573606 0.098615
0.000723 0.571489 0.098410
0.559989 0.548211 0.041083
0.966627 0.437363 0.173456
0.998118 0.500259 0.527940
1.000002 0.724492 0.806459
0.000898 0.843288 0.297052
0.001188 0.843227 0.295515
0.077212 0.882474 0.172218
0.838222 0.832119 0.183187
0.994937 0.769476 0.533330
1.000081 0.810455 0.806164
0.006143 0.958973 0.644479
0.007365 0.959760 0.642755
0.032822 0.976248 0.621455
0.554308 0.973722 0.573873
0.945871 0.943692 0.615881
0.999449 0.919313 0.817842
0.295099 0.996918 0.862319
0.307301 0.996984 0.861801
0.396184 0.996904 0.859690
0.602685 0.996178 0.856635
0.855192 0.992580 0.851624
0.982806 0.982354 0.866995
0.004993 0.022728 0.605492
0.117198 0.009119 0.624376
0.680937 0.005465 0.556076
0.977052 0.050002 0.540420
0.998424 0.254914 0.628749
1.000002 0.676428 0.819368
0.001179 0.132358 0.538894
0.027911 0.104858 0.655097
0.733912 0.030691 0.602080
0.976657 0.080449 0.536493
0.998299 0.286340 0.629404
1.000002 0.681989 0.819368
0.000593 0.558850 0.527577
0.000707 0.555723 0.528001
0.522942 0.528603 0.528009
0.958524 0.435033 0.510667
0.997687 0.491743 0.633817
1.000002 0.720286 0.820708
0.000908 0.837431 0.536358
0.001245 0.837347 0.535389
0.079404 0.873053 0.475860
0.829440 0.823823 0.446290
0.994264 0.768836 0.637266
1.000076 0.808601 0.823278
0.006318 0.957547 0.704554
0.007713 0.958937 0.703469
0.034512 0.974559 0.688452
0.551466 0.972590 0.642371
0.944344 0.941401 0.672683
0.999454 0.919311 0.831373
0.298831 0.996951 0.869450
0.311362 0.997142 0.868955
0.400279 0.996971 0.867551
0.604485 0.996023 0.864066
0.855053 0.992793 0.858410
0.982727 0.981926 0.872674
0.005785 0.206071 0.876369
0.033403 0.180806 0.935652
0.628722 0.103459 0.932252
0.963319 0.105221 0.882927
0.997639 0.276683 0.804240
1.000002 0.668587 0.859899
0.003884 0.278117 0.852521
0.015111 0.261140 0.907044
0.599135 0.167210 0.930280
0.960926 0.153705 0.881587
0.997402 0.308998 0.803498
1.000002 0.674488 0.859703
0.001363 0.571329 0.818353
0.003269 0.567546 0.825675
0.399930 0.510027 0.907804
0.935291 0.456051 0.868168
0.996589 0.502539 0.803161
1.000002 0.716781 0.860793
0.001028 0.827182 0.808843
0.001488 0.827508 0.809493
0.093024 0.858960 0.840844
0.802283 0.805239 0.804796
0.990603 0.768344 0.803217
1.000007 0.805525 0.861947
0.007361 0.955446 0.817847
0.008998 0.956604 0.817856
0.042203 0.973495 0.815696
0.551295 0.969176 0.784435
0.938613 0.936474 0.788813
0.999108 0.918986 0.866272
0.310449 0.996940 0.891582
0.323003 0.996910 0.891319
0.414487 0.996725 0.889691
0.611842 0.995762 0.886672
0.853937 0.992130 0.879024
0.981850 0.981900 0.888180
0.043884 0.581548 0.986324
0.079852 0.572320 0.986257
0.452124 0.526106 0.985676
0.853024 0.493464 0.984413
0.992607 0.518593 0.958965
0.999837 0.694910 0.931151
0.036793 0.602533 0.985634
0.073167 0.593270 0.985911
0.440487 0.548606 0.985215
0.849595 0.515618 0.983771
0.992158 0.536915 0.958968
0.999809 0.700817 0.930588
0.015374 0.703616 0.975510
0.026889 0.701610 0.984347
0.360624 0.664730 0.983843
0.827227 0.635503 0.980249
0.990223 0.634121 0.958630
0.999777 0.736296 0.930560
0.009910 0.839867 0.954116
0.013594 0.840732 0.958461
0.200694 0.836487 0.979165
0.753025 0.808594 0.970100
0.980582 0.789118 0.954051
0.999643 0.814949 0.930723
0.016446 0.956675 0.947381
0.021356 0.959525 0.950270
0.096406 0.976388 0.966335
0.575691 0.961292 0.952469
0.928200 0.930158 0.929647
0.998446 0.918287 0.930548
0.368985 0.996542 0.938489
0.382367 0.996637 0.938636
0.455805 0.996024 0.937975
0.629956 0.995138 0.935504
0.854048 0.990266 0.927134
0.980474 0.979593 0.928719
0.403550 0.837133 0.997090
0.429893 0.836483 0.997090
0.575834 0.833921 0.997120
0.792196 0.830509 0.996563
0.949639 0.821140 0.995593
0.998551 0.835779 0.986878
0.402199 0.839307 0.997168
0.428264 0.838728 0.996933
0.573476 0.835976 0.997162
0.791173 0.832612 0.996760
0.949364 0.823171 0.995573
0.998618 0.837934 0.986430
0.392878 0.853271 0.996964
0.418488 0.852563 0.996926
0.557084 0.850155 0.996720
0.781852 0.846696 0.996232
0.946616 0.838187 0.995480
0.998624 0.848046 0.986814
0.364917 0.888203 0.996733
0.388967 0.887613 0.996622
0.524403 0.885321 0.996532
0.757332 0.881300 0.995477
0.940436 0.872678 0.994565
0.997828 0.875937 0.986098
0.348854 0.949221 0.995541
0.367412 0.949120 0.995580
0.486394 0.947263 0.995206
0.703272 0.943576 0.994204
0.913331 0.934778 0.990930
0.995115 0.928784 0.985265
0.546856 0.994720 0.991122
0.553295 0.994640 0.990650
0.594457 0.994594 0.990149
0.701697 0.993046 0.989115
0.864730 0.987383 0.984728
0.977459 0.977430 0.977413
